icons/dashboard.svg

<!--
  - The MIT License (MIT)
  -
  - Copyright (c) 2015-2024 Elior "Mallowigi" Boukhobza
  -
  - Permission is hereby granted, free of charge, to any person obtaining a copy
  - of this software and associated documentation files (the "Software"), to deal
  - in the Software without restriction, including without limitation the rights
  - to use, copy, modify, merge, publish, distribute, sublicense, and/or sell
  - copies of the Software, and to permit persons to whom the Software is
  - furnished to do so, subject to the following conditions:
  -
  - The above copyright notice and this permission notice shall be included in all
  - copies or substantial portions of the Software.
  -
  - THE SOFTWARE IS PROVIDED "AS IS", WITHOUT WARRANTY OF ANY KIND, EXPRESS OR
  - IMPLIED, INCLUDING BUT NOT LIMITED TO THE WARRANTIES OF MERCHANTABILITY,
  - FITNESS FOR A PARTICULAR PURPOSE AND NONINFRINGEMENT. IN NO EVENT SHALL THE
  - AUTHORS OR COPYRIGHT HOLDERS BE LIABLE FOR ANY CLAIM, DAMAGES OR OTHER
  - LIABILITY, WHETHER IN AN ACTION OF CONTRACT, TORT OR OTHERWISE, ARISING FROM,
  - OUT OF OR IN CONNECTION WITH THE SOFTWARE OR THE USE OR OTHER DEALINGS IN THE
  - SOFTWARE.
  -
  -->

<svg  version="1.1" xmlns="http://www.w3.org/2000/svg" viewBox="0 0 512 512" width="16px" height="16px"
>
  <path fill="#42A5F5" data-iconColor="Dashboard"
        d="M305.70047,342.3598022c-36.0198364,38.2903137-100.3905792,23.0903625-115.5892029-27.2943115c-15.1921387-50.3630371,30.0319519-98.4650574,81.2234497-86.4274597c58.1559753-49.7401428,148.5025024-126.6914368,200.8326111-169.3078308c18.2505493-14.8694839,33.8878479,1.9211006,19.671875,19.6718674C450.3439026,130.8521423,372.6500244,221.857605,322.4714355,280.219696C327.3044128,301.2219849,322.4901428,324.5118408,305.70047,342.3598022z M432.747467,255.971817c0-15.0874023-16.4451904-24.5682373-29.5302734-17.0245209c-13.085083,7.5437012-13.085083,26.5053406,0,34.0490417S432.747467,271.0592346,432.747467,255.971817z M137.6693115,177.2846375c0-15.0874023-16.4451675-24.568222-29.5302658-17.0245209s-13.0850906,26.5053558,0.0000076,34.049057S137.6693115,192.3720551,137.6693115,177.2846375z M117.9977722,255.971817c0-15.0874023-16.4451752-24.5682373-29.5302658-17.0245209c-13.0850906,7.5437012-13.0850906,26.5053406,0,34.0490417S117.9977722,271.0592346,117.9977722,255.971817z M196.6849518,118.2690125c0-15.0874023-16.4451752-24.5682297-29.5302734-17.0245285c-13.0850983,7.5437088-13.085083,26.5053558,0,34.0490646C180.2397766,142.8372498,196.6849518,133.3564148,196.6849518,118.2690125z M354.0592957,118.2690125c0-15.0874023-16.4451904-24.5682297-29.5302734-17.0245285c-13.085083,7.5437088-13.085083,26.5053558,0,34.0490646C337.6141052,142.8372498,354.0592957,133.3564148,354.0592957,118.2690125z M275.3721313,98.5974731c0-15.08741-16.4451904-24.5682297-29.5302887-17.0245285c-13.085083,7.5437012-13.085083,26.5053558,0.0000153,34.049057C258.9269409,123.1657028,275.3721313,113.6848755,275.3721313,98.5974731z M445.1410217,203.6339111c23.2225342,85.9554749-12.5137024,184.7849731-102.7443848,229.0373535C206.9379578,499.1051331,49.4041405,393.2025452,59.516304,242.5041656C69.6272507,91.8237,239.8304443,8.3328886,365.172821,92.5475616l48.8909302-37.368309C260.0759888-66.6424866,31.0267067,24.4521122,2.7645309,218.7560425C-25.4975834,413.059906,168.0320587,566.1639404,350.2819824,493.6817322c142.9860229-56.8665771,195.6464233-219.4277954,137.3392334-345.6645813L445.1410217,203.6339111z"/>
</svg>

<svg xmlns="http://www.w3.org/2000/svg" viewBox="0 0 512 512"><path fill="#42a5f5" d="M305.7 342.36c-36.02 38.29-100.39 23.09-115.589-27.295-15.192-50.363 30.032-98.465 81.224-86.427 58.156-49.74 148.502-126.691 200.832-169.308 18.25-14.87 33.888 1.921 19.672 19.672-41.495 51.85-119.189 142.856-169.368 201.218 4.833 21.002.02 44.292-16.77 62.14m127.047-86.388c0-15.088-16.445-24.568-29.53-17.025s-13.085 26.506 0 34.05 29.53-1.938 29.53-17.025M137.67 177.285c0-15.088-16.445-24.569-29.53-17.025s-13.085 26.505 0 34.05 29.53-1.938 29.53-17.025m-19.671 78.687c0-15.088-16.445-24.568-29.53-17.025s-13.086 26.506 0 34.05 29.53-1.938 29.53-17.025m78.687-137.703c0-15.087-16.445-24.568-29.53-17.025s-13.085 26.506 0 34.05 29.53-1.938 29.53-17.025m157.374 0c0-15.087-16.445-24.568-29.53-17.025s-13.085 26.506 0 34.05 29.53-1.938 29.53-17.025m-78.687-19.672c0-15.087-16.445-24.568-29.53-17.024s-13.085 26.505 0 34.049 29.53-1.937 29.53-17.025m169.769 105.037c23.223 85.955-12.514 184.785-102.744 229.037-135.459 66.434-292.993-39.468-282.88-190.167C69.626 91.824 239.83 8.333 365.172 92.548l48.89-37.369C260.077-66.642 31.028 24.452 2.766 218.756-25.498 413.06 168.032 566.164 350.282 493.682c142.986-56.867 195.646-219.428 137.34-345.665z" data-iconColor="Dashboard"/></svg>
